!!!OTL@@FUR: Chesta chi no la credevi
!!!OTL@IT: Questa non la credevo
!!!OTL@EN: I didn't believe it
**kern
*clefG2
*k[f#]
*G:
*M3/4
*MM60
*>[A,B,C,B,D]
*>A
8d
8d
=1:|!
*>B
4g
4b
8a
8g
=2
4a
4a
8dd
8dd
=3
4cc
4cc
8b
8a
=4
4.g
8r
8d
8d
=5
4g
4b
8a
8g
=6
4a
4a
8dd
8dd
=7
4cc
4cc
8b
8a
=8||
*>C
4.g
8r
8d
8d
=9:|!
*>D
4.g
8r
4r
==
*-
!!!ARE: Friuli
!!!ENC: Kelly Leistikow
!!!END: 2002/03/07
!!!ref: @{OTL@@FUR}/@{OTL@EN}
